!!! OTL: Berkowitz583
!!! Chapter: 1
!!! Section: V
!!! Page: 147
!!! Mode: 
!!! Encoder: AR
**kern
*staff1
=1-
!!pagebreak:original
*clefF4
*k[]
*C:
*M4/4
4.G#\
8F#\
4E\
8Fn\L
8D-\J
=2
4E\
[4C/
8C/L]
8BB-/
8D-/
8F/J
=3
4.A\
8Bn\
4G\
8E-\L
8G-\J
=4
4.A\
8c\
4A-\
8En\L
8Gn\J
=5
4.B\
8A-\
4E-\
4D-\
=6
!!linebreak:original
8F\L
8En\J
2BB/
4AAn/
=7
4C/
4GG#/
4.BB/
8GGn/
=8
8FF#/L
8AA/J
2C#/
8BB/L
8Cn/J
=9
4Fn\
4E\
4D-\
4E-\
=10
2.C/
4r
==
*-
